X:93
T:Atlantic Waltz
C:Anna Gustavsson
R:Waltz
M:3/4
L:1/8
S:Premo & Gustavsson, "I Walked Abroad", 2016.
S:https://store.cdbaby.com/cd/premogustavsson
S:https://www.youtube.com/watch?v=RO8zjMNDfjw
N:Swing the eighths; grace notes have as much weight as what they resolve to. Measure 29 is extra lilt-y. 
N:Honestly, check the recording to hear how to ornament it. 
Z:abc-transcription Josh Larios <hades@elsewhere.org>, 2017.09.11
G:Key G
K:G
P:A
|: D GA |\
"G"{A}B3 d BG | !uppermordent!A2 G2 GA | {A}B3 A GF | "C"E3 D GA | 
"G"{A}B3 d BG | !uppermordent!A2 G2 FG | "C"{D}E3 F GB | "D"A2 d3 c | 
"G"{A}B3 A Bd | B2 A2 GA | {A}B2 BA GF | D4 B,2 | 
"C"C2 E2 B2 | "D"A2 G2 (3FGA | "G"{F}G3 F GA | G3 :|
P:B
|: A Bd |\
"C"{d}e3 d (3efg | "D"{e}f2 e2 d2 | "G"{A}B3 A GF | D4 B,2 | 
"C"C2 D2 E2 | "D"F2 G2 A2 | "G"BA G2 B2 | "D"A2 g3 f | 
"C"{d}e3 d (3efg | "D"f2 e2 f2 | "G"g2 d2 B2 | "C"{B}c4 !uppermordent!B2 | 
"D"A>G F>E D>B, | "C"C2 E2 B2 | "D"A2 G2 (3FGA | "G"{F}G3 F GA | G3 :|
